src/assets/svg/googleplay.svg

<svg width="145" height="46" viewBox="0 0 145 46" fill="none" xmlns="http://www.w3.org/2000/svg">
<path d="M114.46 34.4081H116.495V20.7346H114.46V34.4196V34.4081ZM132.86 25.6681L130.514 31.5906H130.445L128.007 25.6566H125.822L129.456 33.9481L127.386 38.5481H129.513L135.125 25.6681H132.848H132.86ZM121.268 32.8556C120.601 32.8556 119.658 32.5221 119.658 31.7056C119.658 30.6361 120.831 30.2336 121.843 30.2336C122.728 30.2336 123.154 30.4291 123.694 30.6936C123.619 31.2843 123.334 31.8283 122.89 32.2255C122.447 32.6227 121.874 32.8464 121.279 32.8556H121.268ZM121.521 25.3576C120.037 25.3576 118.508 26.0131 117.864 27.4506L119.681 28.2096C120.072 27.4506 120.796 27.2091 121.555 27.2091C122.602 27.2091 123.683 27.8416 123.694 28.9686V29.1066C123.039 28.7583 122.308 28.5766 121.567 28.5776C119.612 28.5776 117.622 29.6586 117.622 31.6596C117.622 33.4996 119.232 34.6726 121.026 34.6726C121.54 34.7015 122.052 34.5919 122.51 34.3553C122.967 34.1186 123.352 33.7635 123.625 33.3271H123.694V34.3851H125.672V29.1411C125.672 26.7261 123.855 25.3576 121.521 25.3576ZM108.894 27.3241H105.984V22.6321H108.894C110.423 22.6321 111.286 23.8971 111.286 24.9781C111.286 26.0361 110.423 27.3241 108.894 27.3241ZM108.836 20.7346H103.96V34.4196H105.996V29.2331H108.848C111.113 29.2331 113.333 27.5886 113.333 24.9781C113.333 22.3676 111.113 20.7346 108.848 20.7346H108.836ZM82.1561 32.8556C80.7416 32.8556 79.5571 31.6826 79.5571 30.0611C79.5571 28.4166 80.7416 27.2206 82.1446 27.2206C83.5476 27.2206 84.6401 28.4166 84.6401 30.0611C84.6401 31.6711 83.5476 32.8556 82.1446 32.8556H82.1561ZM84.4906 26.4271H84.4216C84.1105 26.0901 83.7311 25.8234 83.3086 25.6449C82.8862 25.4664 82.4305 25.3802 81.9721 25.3921C80.7671 25.4369 79.627 25.9496 78.7939 26.8214C77.9608 27.6931 77.5003 28.8553 77.5101 30.0611C77.5005 31.2635 77.9622 32.4218 78.7961 33.2881C79.6301 34.1543 80.7702 34.6595 81.9721 34.6956C83.0876 34.6956 83.9616 34.2011 84.4216 33.6376H84.4906V34.3046C84.4906 36.0871 83.5476 37.0416 82.0066 37.0416C81.4953 37.0296 80.9992 36.8657 80.5814 36.5708C80.1636 36.2759 79.8431 35.8633 79.6606 35.3856L77.8781 36.1216C78.2153 36.9404 78.7897 37.6396 79.5274 38.1294C80.2652 38.6192 81.1326 38.8771 82.0181 38.8701C84.4101 38.8701 86.4341 37.4556 86.4341 34.0286V25.6681H84.4906V26.4271ZM87.8486 34.4081H89.8956V20.7346H87.8486V34.4196V34.4081ZM92.9086 29.9001C92.8868 29.5619 92.9326 29.2228 93.0433 28.9025C93.1539 28.5822 93.3272 28.2872 93.5531 28.0346C93.7789 27.7819 94.0528 27.5768 94.3588 27.4311C94.6647 27.2855 94.9966 27.2022 95.3351 27.1861C96.1516 27.1861 96.8301 27.5886 97.0601 28.1751L92.9201 29.9001H92.9086ZM99.2566 28.3476C98.8656 27.3126 97.6811 25.3806 95.2661 25.3806C92.8741 25.3806 90.8846 27.2666 90.8846 30.0381C90.8706 30.6496 90.98 31.2577 91.2062 31.8261C91.4325 32.3944 91.7709 32.9114 92.2013 33.3461C92.6317 33.7808 93.1452 34.1243 93.7113 34.3562C94.2774 34.588 94.8844 34.7035 95.4961 34.6956C96.2648 34.7 97.0226 34.5131 97.7011 34.1517C98.3797 33.7904 98.9577 33.2659 99.3831 32.6256L97.7961 31.5676C97.5579 31.9638 97.2205 32.2911 96.8171 32.517C96.4137 32.7429 95.9584 32.8596 95.4961 32.8556C94.4611 32.8556 93.7136 32.3841 93.2421 31.4526L99.4636 28.8766L99.2566 28.3476ZM49.6571 26.8181V28.7846H54.3721C54.3055 29.7094 53.9286 30.5846 53.3026 31.2686C52.8301 31.7517 52.2615 32.1302 51.6336 32.3798C51.0056 32.6294 50.3323 32.7445 49.6571 32.7176C48.9697 32.7192 48.2889 32.5838 47.6544 32.3194C47.0199 32.055 46.4444 31.6669 45.9616 31.1776C45.4787 30.6883 45.0982 30.1078 44.8422 29.4699C44.5862 28.8319 44.4599 28.1494 44.4706 27.4621C44.4527 26.4421 44.7367 25.4396 45.2869 24.5806C45.837 23.7215 46.6288 23.0443 47.5627 22.6338C48.4966 22.2234 49.531 22.0981 50.5358 22.2738C51.5407 22.4494 52.4713 22.9182 53.2106 23.6211L54.6136 22.2411C53.9624 21.5941 53.1885 21.0838 52.3373 20.7402C51.4861 20.3966 50.5749 20.2265 49.6571 20.2401C45.6666 20.2401 42.3201 23.4831 42.3201 27.4621C42.3201 31.4411 45.6666 34.6956 49.6571 34.6956C51.8076 34.6956 53.4291 33.9826 54.6941 32.6601C55.8496 31.4074 56.4688 29.7521 56.4191 28.0486C56.4191 27.5886 56.3731 27.1631 56.3041 26.8181H49.6571ZM61.7781 32.8556C60.3751 32.8556 59.1561 31.7056 59.1561 30.0381C59.1561 28.3706 60.3751 27.2206 61.7896 27.2206C63.1926 27.2206 64.4116 28.3706 64.4116 30.0381C64.4116 31.6941 63.1926 32.8556 61.7781 32.8556ZM61.7781 25.3806C61.1629 25.3697 60.5518 25.4827 59.9812 25.7127C59.4106 25.9428 58.8921 26.2853 58.4565 26.7198C58.0209 27.1543 57.6771 27.672 57.4457 28.242C57.2142 28.8121 57.0997 29.4229 57.1091 30.0381C57.1013 30.6528 57.2169 31.2629 57.4489 31.8322C57.6809 32.4016 58.0248 32.9186 58.46 33.3528C58.8953 33.787 59.4132 34.1295 59.9831 34.3602C60.553 34.5908 61.1633 34.7048 61.7781 34.6956C62.3947 34.708 63.0076 34.5962 63.5801 34.367C64.1527 34.1377 64.6734 33.7957 65.1111 33.3612C65.5488 32.9267 65.8947 32.4086 66.1282 31.8377C66.3616 31.2668 66.4779 30.6548 66.4701 30.0381C66.4779 29.4223 66.3619 28.8113 66.1292 28.2412C65.8964 27.6711 65.5516 27.1535 65.1151 26.7192C64.6786 26.2848 64.1593 25.9425 63.5881 25.7126C63.0169 25.4826 62.4053 25.3697 61.7896 25.3806H61.7781ZM71.9786 32.8556C70.5641 32.8556 69.3566 31.7056 69.3566 30.0381C69.3566 28.3706 70.5641 27.2206 71.9786 27.2206C73.3931 27.2206 74.6121 28.3706 74.6121 30.0381C74.6121 31.6941 73.3931 32.8556 71.9786 32.8556ZM71.9786 25.3806C71.3634 25.3697 70.7523 25.4827 70.1817 25.7127C69.6111 25.9428 69.0926 26.2853 68.657 26.7198C68.2214 27.1543 67.8776 27.672 67.6462 28.242C67.4147 28.8121 67.3002 29.4229 67.3096 30.0381C67.3096 32.7176 69.4026 34.6956 71.9786 34.6956C74.5546 34.6956 76.6476 32.7176 76.6476 30.0381C76.6569 29.4229 76.5424 28.8121 76.311 28.242C76.0795 27.672 75.7357 27.1543 75.3002 26.7198C74.8646 26.2853 74.346 25.9428 73.7754 25.7127C73.2048 25.4827 72.5937 25.3697 71.9786 25.3806ZM96.1286 15.6516C95.687 15.3438 95.3723 14.8861 95.2431 14.3636L96.1976 13.9841C96.2781 14.3291 96.4391 14.6166 96.6806 14.8236C96.9106 15.0191 97.1981 15.1226 97.5201 15.1226C97.8651 15.1226 98.1756 15.0076 98.4171 14.7891C98.5362 14.6916 98.6321 14.5687 98.6978 14.4294C98.7634 14.2902 98.7972 14.138 98.7966 13.9841C98.7959 13.778 98.7316 13.5772 98.6126 13.4091C98.4882 13.2261 98.3176 13.0793 98.1181 12.9836C97.9027 12.881 97.6665 12.8298 97.4281 12.8341H96.8646V11.9141H97.3706C97.7156 11.9141 98.0031 11.8336 98.2331 11.6381C98.3463 11.5477 98.4365 11.4318 98.4965 11.2999C98.5564 11.168 98.5844 11.0238 98.5781 10.8791C98.5791 10.7473 98.5507 10.6171 98.495 10.4977C98.4393 10.3783 98.3577 10.2729 98.2561 10.1891C98.0317 9.99954 97.7445 9.90106 97.4511 9.91307C97.1903 9.90664 96.9364 9.99674 96.7381 10.1661C96.546 10.3268 96.4027 10.5378 96.3241 10.7756L95.4041 10.3961C95.5501 10.0061 95.8008 9.66388 96.1286 9.40707C96.4736 9.11957 96.9336 8.97007 97.4626 8.97007C97.8766 8.97007 98.2446 9.05057 98.5666 9.21157C98.8886 9.37257 99.1416 9.60257 99.3256 9.87857C99.4981 10.1661 99.5901 10.4766 99.5901 10.8331C99.5901 11.5001 99.3026 11.9831 98.7276 12.3051V12.3626C99.0389 12.5016 99.3085 12.7196 99.5096 12.9951C99.7166 13.2826 99.8201 13.6161 99.8201 14.0186C99.8237 14.3926 99.7199 14.7598 99.5211 15.0766C99.3182 15.3964 99.0319 15.6549 98.6931 15.8241C98.3292 16.0057 97.9267 16.0964 97.5201 16.0886C97.0141 16.0886 96.5541 15.9506 96.1171 15.6516H96.1286ZM88.7801 9.11957H89.8151V12.8916L89.7691 14.2141H89.8266L92.8741 9.11957H94.0701V15.9391H93.0351V12.0751L93.0926 10.7641H93.0351L89.9301 15.9391H88.7801V9.11957ZM83.1221 14.9616C83.3429 14.9646 83.5606 14.9086 83.7527 14.7994C83.9447 14.6903 84.1041 14.5319 84.2146 14.3406C84.3195 14.152 84.3729 13.9392 84.3696 13.7234C84.3662 13.5076 84.3062 13.2966 84.1955 13.1113C84.0849 12.9261 83.9274 12.7732 83.739 12.668C83.5506 12.5628 83.3378 12.5091 83.1221 12.5121H81.5926V14.9616H83.1221ZM80.5461 9.11957H81.5926V11.5461H83.0416C83.4671 11.5461 83.8581 11.6381 84.2261 11.8106C84.5881 11.9849 84.8924 12.2598 85.1024 12.6024C85.3125 12.945 85.4194 13.3408 85.4106 13.7426C85.418 14.144 85.3105 14.5393 85.1006 14.8816C84.8907 15.224 84.5873 15.4991 84.2261 15.6746C83.8571 15.8534 83.4516 15.9439 83.0416 15.9391H80.5461V9.11957ZM76.5211 10.1086H74.6006V9.11957H79.4651V10.1201H77.5561V15.9506H76.5211V10.1201V10.1086ZM72.6111 13.2136L71.8521 11.1321L71.5991 10.3501H71.5416L71.2886 11.1321L70.5181 13.2136H72.6226H72.6111ZM70.9666 9.11957H72.1626L74.7386 15.9391H73.5886L72.9561 14.1911H70.1846L69.5521 15.9391H68.4021L70.9666 9.11957ZM66.4356 12.9146C66.001 13.2867 65.4434 13.4835 64.8716 13.4666C64.4576 13.4666 64.0781 13.3861 63.7446 13.2136C63.4197 13.0523 63.1481 12.8007 62.9626 12.4891C62.765 12.1469 62.6656 11.757 62.6751 11.3621V9.11957H63.7331V11.1896C63.7331 11.5921 63.8481 11.9141 64.1011 12.1326C64.3311 12.3626 64.6646 12.4776 65.0671 12.4776C65.6191 12.4776 66.0791 12.2591 66.4471 11.8336V9.11957H67.4821V15.9391H66.4471V12.9031L66.4356 12.9146ZM60.3751 13.2136L59.6161 11.1321L59.3516 10.3501H59.2941L59.0411 11.1321L58.2821 13.2136H60.3751ZM58.7306 9.11957H59.9151L62.5026 15.9391H61.3526L60.7201 14.1911H57.9371L57.3046 15.9391H56.1546L58.7306 9.11957ZM50.2206 9.11957H51.2556V12.4316H51.3246L54.0386 9.11957H55.3496V9.17707L52.4746 12.5926L55.4991 15.8701V15.9276H54.1306L51.3246 12.8111H51.2671V15.9276H50.2206V9.11957ZM44.5281 15.6286C43.9932 15.3235 43.5518 14.8781 43.2516 14.3406C42.9384 13.7906 42.7758 13.1679 42.7801 12.5351C42.7801 11.8681 42.9411 11.2701 43.2401 10.7181C43.5578 10.1816 44.0107 9.73792 44.5535 9.4312C45.0963 9.12448 45.7101 8.96548 46.3336 8.97007C47.3686 8.97007 48.2081 9.33807 48.8636 10.0856L48.1391 10.7986C47.9228 10.5334 47.6523 10.3177 47.3456 10.1661C47.0357 10.0235 46.6976 9.95273 46.3566 9.95907C45.8966 9.95907 45.4711 10.0741 45.0916 10.2811C44.7059 10.4917 44.3871 10.8065 44.1716 11.1896C43.9646 11.5806 43.8496 12.0291 43.8496 12.5351C43.8496 13.0411 43.9646 13.4896 44.1831 13.8806C44.4131 14.2716 44.7006 14.5706 45.0916 14.7891C45.6172 15.0823 46.2301 15.1785 46.8202 15.0604C47.4104 14.9424 47.9392 14.6179 48.3116 14.1451L49.0591 14.8696C48.7258 15.2626 48.3095 15.5768 47.8402 15.7896C47.3709 16.0024 46.8603 16.1084 46.3451 16.1001C45.712 16.106 45.0889 15.9433 44.5396 15.6286H44.5281Z" fill="white"/>
<path d="M22.1145 22.0801L11.385 33.4766C11.4987 33.9102 11.7116 34.3116 12.0067 34.6491C12.3018 34.9866 12.6712 35.251 13.0859 35.4216C13.5005 35.5921 13.9491 35.6641 14.3963 35.6319C14.8434 35.5997 15.2771 35.4642 15.663 35.2361L15.6975 35.2131L27.7955 28.2326L22.126 22.0571" fill="#EB3131"/>
<path d="M32.9935 20.125H32.982L27.761 17.089L21.873 22.333L27.7725 28.244L32.9705 25.2425C33.4322 24.994 33.8181 24.6253 34.0875 24.1755C34.3569 23.7257 34.4997 23.2115 34.5009 22.6872C34.5021 22.1629 34.3616 21.648 34.0942 21.197C33.8268 20.746 33.4426 20.3756 32.982 20.125" fill="#F6B60B"/>
<path d="M11.3735 11.822C11.3061 12.0655 11.2713 12.3169 11.27 12.5695V32.7405C11.27 33.005 11.3045 33.258 11.3735 33.488L22.4825 22.3675L11.3735 11.822Z" fill="#5778C5"/>
<path d="M22.195 22.655L27.761 17.089L15.6745 10.074C15.2889 9.84346 14.855 9.70539 14.4071 9.6706C13.9591 9.63581 13.5092 9.70524 13.0925 9.87346C12.6759 10.0417 12.3039 10.3041 12.0056 10.6402C11.7074 10.9762 11.491 11.3768 11.3735 11.8105L22.195 22.655Z" fill="#3BAD49"/>
</svg>

<svg width="145" height="46" fill="none" xmlns="http://www.w3.org/2000/svg"><path d="M114.46 34.408h2.035V20.735h-2.035V34.42v-.012zm18.4-8.74-2.346 5.923h-.069l-2.438-5.934h-2.185l3.634 8.291-2.07 4.6h2.127l5.612-12.88h-2.277.012zm-11.592 7.188c-.667 0-1.61-.334-1.61-1.15 0-1.07 1.173-1.472 2.185-1.472.885 0 1.311.195 1.851.46a2.473 2.473 0 0 1-2.415 2.162h-.011zm.253-7.498c-1.484 0-3.013.655-3.657 2.093l1.817.759c.391-.76 1.115-1 1.874-1 1.047 0 2.128.632 2.139 1.759v.138a4.519 4.519 0 0 0-2.127-.53c-1.955 0-3.945 1.082-3.945 3.083 0 1.84 1.61 3.013 3.404 3.013a2.88 2.88 0 0 0 2.599-1.346h.069v1.058h1.978v-5.244c0-2.415-1.817-3.783-4.151-3.783zm-12.627 1.966h-2.91v-4.692h2.91c1.529 0 2.392 1.265 2.392 2.346 0 1.058-.863 2.346-2.392 2.346zm-.058-6.59h-4.876V34.42h2.036v-5.187h2.852c2.265 0 4.485-1.644 4.485-4.255 0-2.61-2.22-4.243-4.485-4.243h-.012zm-26.68 12.122c-1.414 0-2.599-1.173-2.599-2.795 0-1.644 1.185-2.84 2.588-2.84s2.495 1.196 2.495 2.84c0 1.61-1.092 2.795-2.495 2.795h.011zm2.335-6.429h-.07a3.22 3.22 0 0 0-2.449-1.035 4.634 4.634 0 0 0-4.462 4.67 4.6 4.6 0 0 0 4.462 4.634c1.116 0 1.99-.495 2.45-1.058h.069v.667c0 1.782-.943 2.737-2.484 2.737a2.576 2.576 0 0 1-2.346-1.656l-1.783.736a4.44 4.44 0 0 0 4.14 2.748c2.392 0 4.416-1.414 4.416-4.841v-8.36h-1.943v.758zm3.358 7.981h2.047V20.735h-2.047V34.42v-.012zm5.06-4.508a2.551 2.551 0 0 1 2.426-2.714c.817 0 1.495.403 1.725.99L92.92 29.9h-.011zm6.348-1.552c-.391-1.035-1.576-2.967-3.99-2.967-2.393 0-4.382 1.886-4.382 4.657a4.554 4.554 0 0 0 4.611 4.658 4.634 4.634 0 0 0 3.887-2.07l-1.587-1.058a2.657 2.657 0 0 1-2.3 1.288c-1.035 0-1.782-.472-2.254-1.403l6.222-2.576-.207-.53zm-49.6-1.53v1.967h4.715a4.117 4.117 0 0 1-1.07 2.484 4.83 4.83 0 0 1-3.645 1.449 5.175 5.175 0 0 1-5.186-5.256 5.174 5.174 0 0 1 8.74-3.84l1.403-1.38a6.887 6.887 0 0 0-4.957-2.002c-3.99 0-7.337 3.243-7.337 7.222 0 3.98 3.347 7.234 7.337 7.234 2.15 0 3.772-.713 5.037-2.036a6.521 6.521 0 0 0 1.725-4.611 6.4 6.4 0 0 0-.115-1.23h-6.647zm12.121 6.038c-1.403 0-2.622-1.15-2.622-2.818 0-1.667 1.22-2.817 2.634-2.817 1.403 0 2.622 1.15 2.622 2.817 0 1.656-1.22 2.818-2.634 2.818zm0-7.475a4.59 4.59 0 0 0-4.669 4.657 4.6 4.6 0 0 0 4.67 4.658 4.6 4.6 0 0 0 4.691-4.658 4.6 4.6 0 0 0-4.68-4.657h-.012zm10.2 7.475c-1.414 0-2.621-1.15-2.621-2.818 0-1.667 1.207-2.817 2.622-2.817 1.414 0 2.633 1.15 2.633 2.817 0 1.656-1.219 2.818-2.633 2.818zm0-7.475a4.59 4.59 0 0 0-4.668 4.657c0 2.68 2.093 4.658 4.669 4.658 2.576 0 4.669-1.978 4.669-4.658a4.591 4.591 0 0 0-4.67-4.657zm24.15-9.73a2.22 2.22 0 0 1-.885-1.287l.955-.38c.08.345.241.633.483.84.23.195.517.299.84.299.344 0 .655-.115.896-.334a1.036 1.036 0 0 0 .38-.805c-.001-.206-.065-.407-.184-.575a1.253 1.253 0 0 0-.495-.425 1.54 1.54 0 0 0-.69-.15h-.563v-.92h.506c.345 0 .632-.08.862-.276a.92.92 0 0 0 .345-.759.886.886 0 0 0-.322-.69 1.173 1.173 0 0 0-.805-.276 1.058 1.058 0 0 0-.713.253c-.192.16-.335.372-.414.61l-.92-.38c.146-.39.397-.732.725-.989.345-.287.805-.437 1.334-.437.414 0 .782.08 1.104.242.322.16.575.39.759.667.172.287.264.598.264.954 0 .667-.287 1.15-.862 1.472v.058c.31.139.58.357.782.632.207.288.31.621.31 1.024.004.374-.1.74-.299 1.058-.203.32-.49.578-.828.747a2.519 2.519 0 0 1-1.173.265 2.41 2.41 0 0 1-1.403-.437h.012zM88.78 9.12h1.035v3.772l-.046 1.322h.058l3.047-5.094h1.196v6.82h-1.035v-3.865l.058-1.31h-.058l-3.105 5.174h-1.15V9.12zm-5.658 5.842a1.242 1.242 0 0 0 1.093-.621 1.23 1.23 0 0 0-1.093-1.829h-1.53v2.45h1.53zM80.546 9.12h1.047v2.426h1.449c.425 0 .816.092 1.184.265a2.093 2.093 0 0 1 1.185 1.932 2.105 2.105 0 0 1-1.185 1.932c-.369.178-.774.269-1.184.264h-2.496V9.12zm-4.025.989h-1.92v-.99h4.864v1.001h-1.909v5.83h-1.035V10.11zm-3.91 3.105-.759-2.082-.253-.782h-.057l-.253.782-.77 2.082h2.104-.012zM70.967 9.12h1.196l2.576 6.82h-1.15l-.633-1.749h-2.771l-.633 1.748h-1.15l2.565-6.82zm-4.531 3.795a2.3 2.3 0 0 1-1.564.552c-.414 0-.794-.08-1.127-.253a1.886 1.886 0 0 1-.782-.725 2.15 2.15 0 0 1-.288-1.127V9.12h1.058v2.07c0 .402.115.724.368.943.23.23.564.345.966.345.552 0 1.012-.219 1.38-.644V9.12h1.035v6.82h-1.035v-3.037l-.011.012zm-6.06.299-.76-2.082-.264-.782h-.058l-.253.782-.759 2.082h2.093zM58.73 9.12h1.184l2.588 6.82h-1.15l-.633-1.749h-2.783l-.632 1.748h-1.15l2.576-6.82zm-8.51 0h1.035v3.312h.069l2.714-3.312h1.31v.057l-2.874 3.416 3.024 3.277v.058h-1.368l-2.806-3.117h-.058v3.117h-1.046V9.12zm-5.693 6.509a3.38 3.38 0 0 1-1.276-1.288 3.599 3.599 0 0 1-.472-1.806c0-.667.161-1.265.46-1.817a3.564 3.564 0 0 1 3.094-1.748c1.035 0 1.874.368 2.53 1.116l-.725.713a2.391 2.391 0 0 0-.793-.633 2.265 2.265 0 0 0-.99-.207c-.46 0-.885.115-1.264.322-.386.21-.705.525-.92.909-.207.39-.322.84-.322 1.345 0 .506.115.955.333 1.346.23.39.518.69.909.908a2.53 2.53 0 0 0 3.22-.644l.747.725a3.486 3.486 0 0 1-2.714 1.23 3.565 3.565 0 0 1-1.805-.471h-.012z" fill="#fff"/><path d="M22.114 22.08 11.386 33.477a2.898 2.898 0 0 0 4.278 1.76l.034-.024 12.099-6.98-5.67-6.176" fill="#EB3131"/><path d="M32.993 20.125h-.011l-5.221-3.036-5.888 5.244 5.9 5.911 5.198-3.002a2.91 2.91 0 0 0 .011-5.117" fill="#F6B60B"/><path d="M11.373 11.822a2.857 2.857 0 0 0-.103.748v20.17c0 .265.035.518.104.748l11.109-11.12-11.11-10.546z" fill="#5778C5"/><path d="m22.195 22.655 5.566-5.566-12.086-7.015a2.909 2.909 0 0 0-4.302 1.736l10.822 10.845z" fill="#3BAD49"/></svg>
